!! 00000] TT[WS
!!!OTL: Tiao cai
!!!ARE: Asia, China,ÿShanxi Heshuen
!! Ethnic Group: Han
!! WI, 56 (1)
!!!SCT: J0061
!!!YEM: Copyright 1995, estate of Helmut Schaffrath.
**kern
*ICvox
*Ivox
*M2/4
*k[b-]
*F:
{4cc
8cc
8dd
=1
4cc
8g
8a
=2
4.cc
8dd
=3
2cc}
=4
{4ff
8a
8g
=5
4.f
8g
=6
2f}
=7
{4g
4cc
=8
8g
8a
8g
8f
=9
8g
8a
8g
8f
=10
4.e
8f
=11
4.g
8f}
=12
{8e
8f
8g
8a
=13
8g
8a
8g
8d
=14
2c}
==
!!!AGN: Xiaodiao. Laodong
!!!ONB: ESAC (Essen Associative Code) Database: CHINA
!!!AMT: simple duple
!!!AIN: vox
!!!EED: Helmut Schaffrath
!!!EEV: 1.0
*-
